src/img/roundIcon3.svg

<svg width="105" height="105" viewBox="0 0 105 105" fill="none" xmlns="http://www.w3.org/2000/svg">
<path opacity="0.2" d="M52.5 105C81.4949 105 105 81.4949 105 52.5C105 23.5051 81.4949 0 52.5 0C23.5051 0 0 23.5051 0 52.5C0 81.4949 23.5051 105 52.5 105Z" fill="url(#paint0_linear_0_188)"/>
<path fill-rule="evenodd" clip-rule="evenodd" d="M41.1 25.4298L46.3934 23.3979L49.78 32.2202L44.4866 34.2521L41.1 25.4298Z" fill="#00CCCC" stroke="#173753" stroke-width="2.722" stroke-linecap="round" stroke-linejoin="round"/>
<path fill-rule="evenodd" clip-rule="evenodd" d="M53.278 31.531C61.42 31.531 68.02 38.131 68.02 46.273C68.02 48.287 67.616 50.206 66.885 51.955L64.401 73.76C63.878 78.343 60 81.805 55.387 81.805H50.035C45.422 81.805 41.544 78.343 41.021 73.76L38.536 51.943H39.666C38.938 50.198 38.536 48.283 38.536 46.273C38.536 38.131 45.136 31.531 53.278 31.531Z" fill="#E5F9F9" stroke="#0F2336" stroke-width="2.722" stroke-linecap="round" stroke-linejoin="round"/>
<path fill-rule="evenodd" clip-rule="evenodd" d="M55.557 64.5429C59.334 67.0589 62.647 68.4759 65.498 68.7949L65.029 73.4789C64.524 78.5289 60.274 82.3749 55.199 82.3749H50.069C44.994 82.3749 40.744 78.5289 40.239 73.4789L39.249 63.5969C44.297 60.3469 49.733 60.6619 55.557 64.5429Z" fill="#00C9C9"/>
<path fill-rule="evenodd" clip-rule="evenodd" d="M53.278 31.531C61.42 31.531 68.02 38.131 68.02 46.273C68.02 48.287 67.616 50.206 66.885 51.955L64.401 73.76C63.878 78.343 60 81.805 55.387 81.805H50.035C45.422 81.805 41.544 78.343 41.021 73.76L38.536 51.943H39.666C38.938 50.198 38.536 48.283 38.536 46.273C38.536 38.131 45.136 31.531 53.278 31.531V31.531Z" stroke="#173753" stroke-width="2.722" stroke-linecap="round" stroke-linejoin="round"/>
<path d="M68.587 45.1389H36.835C35.2693 45.1389 34 46.4082 34 47.9739V49.1079C34 50.6736 35.2693 51.9429 36.835 51.9429H68.587C70.1527 51.9429 71.422 50.6736 71.422 49.1079V47.9739C71.422 46.4082 70.1527 45.1389 68.587 45.1389Z" fill="#E5F9F9" stroke="#173753" stroke-width="2.722" stroke-linecap="round" stroke-linejoin="round"/>
<defs>
<linearGradient id="paint0_linear_0_188" x1="42.7308" y1="6.3861" x2="77.7095" y2="105" gradientUnits="userSpaceOnUse">
<stop stop-color="#00C9C9" stop-opacity="0.147"/>
<stop offset="1" stop-color="#00C9C9" stop-opacity="0.699"/>
</linearGradient>
</defs>
</svg>

<svg xmlns="http://www.w3.org/2000/svg" width="105" height="105" fill="none"><path fill="url(#a)" d="M52.5 105c28.995 0 52.5-23.505 52.5-52.5S81.495 0 52.5 0 0 23.505 0 52.5 23.505 105 52.5 105Z" opacity=".2"/><path fill="#0CC" fill-rule="evenodd" stroke="#173753" stroke-linecap="round" stroke-linejoin="round" stroke-width="2.722" d="m41.1 25.43 5.293-2.032 3.387 8.822-5.293 2.032L41.1 25.43Z" clip-rule="evenodd"/><path fill="#E5F9F9" fill-rule="evenodd" stroke="#0F2336" stroke-linecap="round" stroke-linejoin="round" stroke-width="2.722" d="M53.278 31.531c8.142 0 14.742 6.6 14.742 14.742 0 2.014-.404 3.933-1.135 5.682L64.401 73.76a9.073 9.073 0 0 1-9.014 8.045h-5.352a9.073 9.073 0 0 1-9.014-8.045l-2.485-21.817h1.13a14.69 14.69 0 0 1-1.13-5.67c0-8.142 6.6-14.742 14.742-14.742Z" clip-rule="evenodd"/><path fill="#00C9C9" fill-rule="evenodd" d="M55.557 64.543c3.777 2.516 7.09 3.933 9.941 4.252l-.469 4.684a9.88 9.88 0 0 1-9.83 8.896h-5.13a9.88 9.88 0 0 1-9.83-8.896l-.99-9.882c5.048-3.25 10.484-2.935 16.308.946Z" clip-rule="evenodd"/><path stroke="#173753" stroke-linecap="round" stroke-linejoin="round" stroke-width="2.722" d="M53.278 31.531c8.142 0 14.742 6.6 14.742 14.742 0 2.014-.404 3.933-1.135 5.682L64.401 73.76a9.073 9.073 0 0 1-9.014 8.045h-5.352a9.073 9.073 0 0 1-9.014-8.045l-2.485-21.817h1.13a14.69 14.69 0 0 1-1.13-5.67c0-8.142 6.6-14.742 14.742-14.742v0Z" clip-rule="evenodd"/><path fill="#E5F9F9" stroke="#173753" stroke-linecap="round" stroke-linejoin="round" stroke-width="2.722" d="M68.587 45.139H36.835A2.835 2.835 0 0 0 34 47.974v1.134a2.835 2.835 0 0 0 2.835 2.835h31.752a2.835 2.835 0 0 0 2.835-2.835v-1.134a2.835 2.835 0 0 0-2.835-2.835Z"/><defs><linearGradient id="a" x1="42.731" x2="77.71" y1="6.386" y2="105" gradientUnits="userSpaceOnUse"><stop stop-color="#00C9C9" stop-opacity=".147"/><stop offset="1" stop-color="#00C9C9" stop-opacity=".699"/></linearGradient></defs></svg>
